X:5729
T:Sailing in the Lowlands Low
O:england
B:Joyce, P. W.; "Old Irish Folk Music and Songs"
R:song air
L:1/8
M:C
K:G
G2 BG E2 D2|GABc d4|e2 ee edBd|e4 d4|
G2 BG E2 D2|GABc d4|edBG A2 BA|G6 z2||


